X: 144
T: Behold My Horse
C: Teton Sioux band 1911-1914
N: Derived from sioux140.krn
O: South Dakota, U.S.A.
N: Teton Sioux Music by Frances Densmore, 1918
Z: transcribed to **kern format by Craig Sapp
L: 1/8
M: 2/4
Q: 1/4=58
K: Db clef=bass
%%linebreak <none>
F> F F E [I:setbarnb 2]| 
D/> D/ (DB,2) | 
D> D F/ E3/ | 
D/> D/ (D B,) B,/ B,/ | 
D D (3D D D ||  
[M:3/4]F< DB,2B,3/ C/ ||  
[M:2/4]B,2A,3/ A,/ | 
A,2F,2 | 
(B,< A,) A,3/ B,/ ||  
[M:3/4](B,< A,) F,> F, F,3/ F,/ ||  
[M:2/4]F,4 | 
F,4 |]  



